!!!OTL: "Die Spinnerinnen" SPINNT IHR MAEDCHEN
!!!ARE: Europa, Mitteleuropa, Deutschland, Niederrhein
!!!SCT: Z1292
!!!YEM: Copyright 1995, estate of Helmut Schaffrath.
**kern
*ICvox
*Ivox
*M2/4
*k[]
*C:
{8.c
16d
8c
8G
=1
8A
8F
8G
8G}
=2
{8.c
16d
8c
8G
=3
8A
8F
8G
8G}
=4
{8c
8c
8B
8c
=5
8f
8e
4d}
=6
{8c
8e
8d
8c
=7
8B
8A
4G}
=8
{8.E
16F
8G
8G
=9
8A
8B
4c}
=10
{8f
8d
8e
8c
=11
16e
16d
16c
16B
4c}
=12
{8.c
16d
8e
8e
=13
8f
8a
4g}
=14
{8f
8d
8e
8c
=15
8d
8B
4c}
==
!!!AGN: Handwerker -, Bauern - Lied
!!!ONB: ESAC (Essen Associative Code) Database: ZUCCAL
!!!AMT: simple duple
!!!AIN: vox
!!!EED: Helmut Schaffrath
!!!EEV: 1.0
*-
